X:1
T:Title
%%score { ( 1 3 ) | ( 2 4 ) }
L:1/8
M:4/4
K:Eb
V:1 treble nm="Grand Piano"
V:3 treble 
V:2 bass 
V:4 bass 
V:1
 z4 z2[Q:1/4=100] [EG]>[FA] | [GB]2 [GB]2 [_G=A]>[=GB] [_Ac]>[GB] | [Ge]2 [GB]4 [Gc]>[Ge] | %3
 [Ad]2 [Ac]2 [DB]>[DF] [EG]>[FA] | [EG]6 [EG]>[FA] | [GB]2 [GB]2 [_G=A]>[=GB] [_Ac]>[GB] | %6
 [Ge]2 [GB]4 [Gc]>[Ge] | d2 F2 d>c B>=A |[M:3/4] [DB]6 |[M:1/4] [EB]>[EG] | %10
[M:4/4] [FA]>[=EG] [FA]>[EG] [FA]>[EG] [FA]>[DF] | [EG]2 [GB]4 [GB]>[EG] | %12
 [FA]>[=EG] [FA]>[GB] [Ad]>[Ac] [B,GB]>[B,FA] | [EG]6 [B,EG]>[B,FA] | %14
 [GB]>[_G=A] [=GB]>[_GA] [=GB]>[EG] [Ge]>[GB] | [Bd]2 c4 A>c | B>c B>A G2 z A, |[M:3/4] E6 |] %18
V:2
 z4 z2 [E,B,]>[E,B,] | [E,E]2 [E,E]2 [E,E]>[E,E] [E,B,]>[E,B,] | [E,B,]2 [E,E]4 [E,E]>[E,B,] | %3
 [B,,B,]2 [B,,B,]2 [B,,F,]>[B,,B,] [B,,B,]>[B,,B,] | [E,B,]6 [E,B,]>[E,B,] | %5
 [E,E]2 [E,E]2 [E,E]>[E,E] [E,B,]>[E,B,] | [E,B,]2 [E,E]4 [E,E]>[E,B,] | %7
 [F,B,F]2 [F,B,D]2 [F,=A,F]>[F,A,E] [F,B,D]>[F,C] |[M:3/4] [B,,F,]6 |[M:1/4] [E,G,]>[E,B,] | %10
[M:4/4] [B,,B,]>[B,,B,] [B,,B,]>[B,,B,] [B,,B,]>[B,,B,] [=B,,B,]>[B,,B,] | %11
 [E,B,]2 [E,E]4 [E,E]>[E,B,] | [B,,B,]>[B,,B,] [B,,B,]>[B,,B,] [B,,B,]>[B,,B,] C,>D, | %13
 z2 z B,- B,2 z2 | [E,E]>[E,E] [E,E]>[E,E] [E,E]>[E,B,] [E,B,]>[E,E] | %15
 [A,E]2 [A,EA]4 [A,CE]>[A,E] | [G,B,E]>[K:bass][A,E] [G,B,E]>[A,CE] [B,E]2 .[B,,B,]2 | %17
[M:3/4] [E,G,]6 |] %18
V:3
 x8 | x8 | x8 | x8 | x8 | x8 | x8 | x8 |[M:3/4] x6 |[M:1/4] x2 |[M:4/4] x8 | x8 | x8 | B,4 z4 | %14
 x8 | x8 | z4 z2 [DF]2 |[M:3/4] x6 |] %18
V:4
 x8 | x8 | x8 | x8 | x8 | x8 | x8 | x8 |[M:3/4] x6 |[M:1/4] x2 |[M:4/4] x8 | x8 | x8 | %13
 E,E, .G,2 E,2 E,>E, | x8 | x8 | x3/2[K:bass] x13/2 |[M:3/4] x6 |] %18

